!!!COM: Fe/licien David
!!!CNT: Francais
!!!TXO: Francais
!!!OTL: J'ai Peur de L'aimer
!!!LYR: Emile Barateau
!!!ENC: Jacob Pegg
!!!YOR: Romantic French Song 1830-1870, David Tunley, ed., New York: Garland Publishing, Inc., 1995
!!!ODT: 1847/
!!NB: Vocal melody and text only encoded.
!!NB: First strophe encoded; subsequent strophes show minimal melodic variation. 
**kern	**silbe
*clef G2	*
*k[f#c#g#]	*
*M4/4	*
=4	=4
2r	.
{4a	{Je
8b	suis
8cc#	re^-
=5	=5
4a	-veu-
(4.ee	-se en
8a)	|
8g#	son
8a	ab-
=6	=6
4cc#	-sen-
4b	-ce
4a	Je
8dd	suis
8cc#	tram-
=7	=7
4b	-blan-
(8cc#	-te
8b)	en
4.f#	sa
8g#	pre/-
=8	=8
4f#	-sen-
4e	-ce;
4a	Rien
(8b	sans
8cc#)	|
=9	=9
8a	lui
8a	ne
(4.ee	sait
8a)	|
8g#	me
8a	char-
=10	=10
(4cc#	-mer;
4b)	|
8b	Je
8b	veux
8.b	l'ou-
16b	-bli-
=11	=11
4ccn	-er
8.dd	et
16cc#	j'y
2b	pen-
=12	=12
4e}	-se!}
4r	.
4r	.
{8.ee	{Ah!
16ee	j'ai
=13	=13
(4dd#	peur
4ee)	|
4r	.
8ddn	de
8ee	l'ai-
=14	=14
8cc#	-mer,
8r	.
2dd	Ah!
(8cc#	J'ai
8b)	|
=15	=15
8a	peur,
8b	j'ai
2b	peur
8f#	de
8g	l'ai-
=16	=16
2a}	-mer!}
2r	.
*-	*-
